icons/icn_subirArchivo.svg

<svg width="24" xmlns="http://www.w3.org/2000/svg" height="24" id="screenshot-7f4951e7-eba4-8056-8006-51ce5774fe33" viewBox="0 0 24 24" xmlns:xlink="http://www.w3.org/1999/xlink" fill="none" version="1.1"><g id="shape-7f4951e7-eba4-8056-8006-51ce5774fe33"><g class="frame-container-wrapper"><g class="frame-container-blur"><g class="frame-container-shadows"><g fill="none"><g class="fills" id="fills-7f4951e7-eba4-8056-8006-51ce5774fe33"><rect rx="0" ry="0" x="0" y="0" width="24" height="24.000000000000455" transform="matrix(1, 0, 0, 1, 0, 0)" class="frame-background"/></g><g class="frame-children"><g id="shape-796dcf21-9a76-80bf-8006-51cf4527a30d" rx="0" ry="0"><g id="shape-7f4951e7-eba4-8056-8006-51ce29a3dff8" style="opacity: 1;"><g class="fills" id="fills-7f4951e7-eba4-8056-8006-51ce29a3dff8"><path d="M5.966845512390137,2.061767578125C4.357714653015137,2.061767578125,3.037158250808716,3.38232421875,3.037158250808716,4.991455078125L3.037158250808716,19.010986328125C3.037158250808716,20.6201171875,4.357714653015137,21.940673828125,5.966845512390137,21.940673828125L18.037158966064453,21.940673828125C19.646289825439453,21.940673828125,20.960987091064453,20.6201171875,20.960987091064453,19.010986328125L20.960987091064453,9.001220703125C20.960742950439453,8.80712890625,20.883594512939453,8.6209716796875,20.746143341064453,8.483642578125L14.515673637390137,2.276611328125C14.378954887390137,2.1397705078125,14.193652153015137,2.0626220703125,14.000048637390137,2.061767578125ZM5.966845512390137,3.530517578125L12.263720512390137,3.530517578125L12.263720512390137,9.001220703125C12.264452934265137,9.1961669921875,12.342822074890137,9.3826904296875,12.481249809265137,9.5196533203125C12.619677543640137,9.65673828125,12.807177543640137,9.7330322265625,13.002001762390137,9.731689453125L18.996143341064453,9.731689453125L19.490283966064453,9.731689453125L19.490283966064453,19.010986328125C19.490283966064453,19.8330078125,18.859180450439453,20.471923828125,18.037158966064453,20.471923828125L5.966845512390137,20.471923828125C5.144824028015137,20.471923828125,4.505908012390137,19.8330078125,4.505908012390137,19.010986328125L4.505908012390137,4.991455078125C4.505908012390137,4.1695556640625,5.144824028015137,3.530517578125,5.966845512390137,3.530517578125ZM13.732470512390137,3.565673828125L18.453174591064453,8.270751953125L13.732470512390137,8.270751953125ZM11.072314262390137,10.268798828125C11.052050590515137,10.269287109375,11.031786918640137,10.2705078125,11.011767387390137,10.2725830078125C11.008105278015137,10.27197265625,11.004199028015137,10.271240234375,11.000536918640137,10.2706298828125C10.985400199890137,10.271484375,10.970507621765137,10.272705078125,10.955615043640137,10.2744140625C10.897753715515137,10.2781982421875,10.840624809265137,10.2886962890625,10.785449028015137,10.3057861328125C10.752245903015137,10.315185546875,10.719531059265137,10.326904296875,10.687792778015137,10.3409423828125C10.666064262390137,10.3509521484375,10.644579887390137,10.362060546875,10.623583793640137,10.374267578125C10.570361137390137,10.4044189453125,10.521044731140137,10.441162109375,10.477099418640137,10.483642578125L7.479052543640137,13.481689453125C7.340136528015137,13.6192626953125,7.262255668640137,13.806640625,7.262255668640137,14.002197265625C7.262255668640137,14.1976318359375,7.340136528015137,14.385009765625,7.479052543640137,14.522705078125C7.616747856140137,14.661376953125,7.804003715515137,14.7393798828125,7.999560356140137,14.7393798828125C8.194872856140137,14.7393798828125,8.382372856140137,14.661376953125,8.520068168640137,14.522705078125L10.262255668640137,12.772705078125L10.262255668640137,17.999267578125C10.260790824890137,18.1954345703125,10.338183403015137,18.384033203125,10.476855278015137,18.522705078125C10.615771293640137,18.6614990234375,10.804247856140137,18.73876953125,11.000536918640137,18.737548828125C11.195361137390137,18.7366943359375,11.381884574890137,18.658447265625,11.518847465515137,18.5198974609375C11.656054496765137,18.3814697265625,11.732226371765137,18.194091796875,11.731005668640137,17.999267578125L11.731005668640137,12.772705078125L13.481005668640137,14.522705078125C13.766894340515137,14.8065185546875,14.228075981140137,14.8065185546875,14.514208793640137,14.522705078125C14.652880668640137,14.385009765625,14.730761528015137,14.1976318359375,14.730761528015137,14.002197265625C14.730761528015137,13.806640625,14.652880668640137,13.6192626953125,14.514208793640137,13.481689453125L11.543505668640137,10.509033203125C11.534716606140137,10.5003662109375,11.525927543640137,10.4918212890625,11.516894340515137,10.483642578125C11.449511528015137,10.4146728515625,11.369433403015137,10.3594970703125,11.280810356140137,10.321533203125C11.255663871765137,10.3135986328125,11.230273246765137,10.30712890625,11.204394340515137,10.3018798828125C11.191943168640137,10.2989501953125,11.179247856140137,10.2962646484375,11.166552543640137,10.2939453125C11.134814262390137,10.2833251953125,11.102099418640137,10.2747802734375,11.069140434265137,10.2686767578125Z" style="display: inline; stroke-linecap: round; stroke-linejoin: round; fill: rgb(0, 0, 0); fill-opacity: 1;"/></g></g></g></g></g></g></g></g></g></svg>

<svg fill="none" viewBox="0 0 24 24"><g class="frame-container-wrapper"><g class="frame-container-blur"><g class="frame-container-shadows"><g class="fills"><rect width="24" height="24" class="frame-background" rx="0" ry="0"/></g><g class="frame-children"><path fill="#000" d="M5.9668 2.0618c-1.609 0-2.9296 1.3205-2.9296 2.9297V19.011c0 1.6091 1.3205 2.9297 2.9296 2.9297h12.0704c1.609 0 2.9238-1.3206 2.9238-2.9297V9.0012a.7328.7328 0 0 0-.2149-.5176l-6.2304-6.207A.7332.7332 0 0 0 14 2.0618Zm0 1.4687h6.297v5.4707a.7332.7332 0 0 0 .7382.7305H19.4903v9.2793c0 .822-.6311 1.461-1.4531 1.461H5.9668c-.822 0-1.4609-.639-1.4609-1.461V4.9915c0-.822.639-1.461 1.461-1.461Zm7.7657.0352 4.7207 4.705h-4.7207Zm-2.6602 6.7031a.7675.7675 0 0 0-.0605.0038l-.0113-.002a.777.777 0 0 0-.0449.0038.7379.7379 0 0 0-.1702.0314.7397.7397 0 0 0-.0976.0351.763.763 0 0 0-.0642.0334.7249.7249 0 0 0-.1465.1093l-2.998 2.998a.7322.7322 0 0 0-.2168.5206c0 .1954.0778.3828.2168.5205a.7333.7333 0 0 0 1.041 0l1.7422-1.75v5.2266a.7327.7327 0 0 0 .2146.5234.7342.7342 0 0 0 .5236.2148.7333.7333 0 0 0 .5183-.2176.7329.7329 0 0 0 .2122-.5206v-5.2266l1.75 1.75a.7333.7333 0 1 0 1.0332-1.041l-2.9707-2.9727a.8643.8643 0 0 0-.0266-.0254.7345.7345 0 0 0-.236-.162.7461.7461 0 0 0-.0765-.0197.7698.7698 0 0 0-.0378-.008.7225.7225 0 0 0-.0975-.0252Z" class="fills"/></g></g></g></g></svg>
